X:13
T:Miss Ann Amelia Stewart's Strathspey
C:R. Petrie
S:Petrie's Second Collection of Strathspey Reels and Country Dances &c.
Z:Steve Wyrick , 6/5/04
N:Petrie's Second Collection, page 5
L:1/8
M:C
R:Strathspey
K:F
f|F>GA<F c<FA>f|(a/g/f/e/ f)F AGGA  |F>GAF             cFAf  |(a/g/f/e/ f)d  cAA:|
c|f>gfc  c<ag<c|d>f d/c/B/A/  B(GGc)|f/e/f/g/ a/g/f/e/ f<cd>f|c<(ff>d)  c<(aa>g) |
  f<ad<f c<fA<f|(a/g/f/e/ f)F A<GG>A|F>GA>c            d>ef>g|(a/g/f/e/ f)<d cAA|]
